public/icons/icon/geo-star.svg

<svg width="30" height="30" viewBox="0 0 30 30" fill="none" xmlns="http://www.w3.org/2000/svg">
<path d="M7.34666 17.7391L6.53767 18.327L7.34665 17.7391L3.23417 12.0794L9.88794 9.91783C10.2897 9.78732 10.6398 9.53294 10.8881 9.19117L15 3.53101L19.1119 9.19117L19.9209 8.60343L19.1119 9.19118C19.3602 9.53294 19.7103 9.78732 20.1121 9.91783L26.7658 12.0794L22.6533 17.7391C22.405 18.0809 22.2713 18.4924 22.2713 18.9149L22.2717 25.911L15.6181 23.7487L15.3091 24.6997L15.6181 23.7487C15.2164 23.6181 14.7836 23.6181 14.3819 23.7487L14.6909 24.6997L14.3819 23.7487L7.72831 25.911L7.72868 18.9149C7.7287 18.4925 7.59497 18.0809 7.34666 17.7391Z" stroke="black" stroke-width="2"/>
</svg>

<svg xmlns="http://www.w3.org/2000/svg" width="30" height="30" fill="none"><path stroke="#000" stroke-width="2" d="m7.347 17.74-.81.587.81-.588-4.113-5.66 6.654-2.161a2 2 0 0 0 1-.727L15 3.531l4.112 5.66.809-.588-.81.588a2 2 0 0 0 1.001.727l6.654 2.161-4.113 5.66a2 2 0 0 0-.382 1.176v6.996l-6.653-2.162-.309.95.31-.95a2 2 0 0 0-1.237 0l.309.95-.31-.95-6.653 2.162v-6.996a2 2 0 0 0-.381-1.176Z"/></svg>
